X:2552
T:Ringpolska
R:Polska
B:http://www.smus.se/earkiv/fmk/browselarge.php?lang=sw&katalogid=Hs+11&bildnr=00057
M:3/4
L:1/16
Z:Nils L
K:G
(ga)gf g2g2 d2d2 | (ef)ed e2e2 B2B2 | c2(ec) B2(dB) A2(cA) | G2(FG) AGFE D4 | 
(ga)gf g2g2 d2d2 | (ef)ed e2e2 B2B2 | c2ec B2dB A2cA | (BA)GF G8 ::
g2>b2 (d'b)gb g4 | f2>a2 (c'a)fa f4 | (ga)gf e2ef (gf)ga | bagf agfe d4 | 
(ga)gf g2g2 d2d2 | (ef)ed e2e2 B2B2 | c2ec B2dB A2cA | (BA)GF G8 :|
(:musicend:)
(:music:)
